_includes/icons/join/flexibility.svg

<svg id="Layer_1" data-name="Layer 1" xmlns="http://www.w3.org/2000/svg" viewBox="0 0 47 52"><defs><style>.cls-1{fill:#609c70;}.cls-2{fill:none;stroke:#54565a;}</style></defs><path class="cls-1" d="M2,47.31259a4.71945,4.71945,0,0,0,4.74838,4.6875H41.5698a4.71946,4.71946,0,0,0,4.7484-4.6875V20.75009H2ZM33.6558,28.172a1.183,1.183,0,0,1,1.1871-1.1719h3.957A1.183,1.183,0,0,1,39.987,28.172v3.9062a1.183,1.183,0,0,1-1.1871,1.1719h-3.957a1.183,1.183,0,0,1-1.1871-1.1719Zm0,12.5a1.183,1.183,0,0,1,1.1871-1.1719h3.957A1.183,1.183,0,0,1,39.987,40.672v3.9062a1.183,1.183,0,0,1-1.1871,1.1719h-3.957a1.183,1.183,0,0,1-1.1871-1.1719Zm-12.6623-12.5a1.183,1.183,0,0,1,1.1871-1.1719h3.957a1.183,1.183,0,0,1,1.1871,1.1719v3.9062a1.183,1.183,0,0,1-1.1871,1.1719h-3.957a1.183,1.183,0,0,1-1.1871-1.1719Zm0,12.5a1.183,1.183,0,0,1,1.1871-1.1719h3.957a1.183,1.183,0,0,1,1.1871,1.1719v3.9062a1.183,1.183,0,0,1-1.1871,1.1719h-3.957a1.183,1.183,0,0,1-1.1871-1.1719ZM8.33117,28.172a1.183,1.183,0,0,1,1.18709-1.1719H13.4752a1.183,1.183,0,0,1,1.1871,1.1719v3.9062a1.183,1.183,0,0,1-1.1871,1.1719H9.51826a1.183,1.183,0,0,1-1.18709-1.1719Zm0,12.5a1.183,1.183,0,0,1,1.18709-1.1719H13.4752a1.183,1.183,0,0,1,1.1871,1.1719v3.9062a1.183,1.183,0,0,1-1.1871,1.1719H9.51826a1.183,1.183,0,0,1-1.18709-1.1719ZM41.5698,8.25009H36.8214V3.56259a1.57733,1.57733,0,0,0-1.5828-1.5625H32.0731a1.57733,1.57733,0,0,0-1.5828,1.5625v4.6875H17.8279V3.56259a1.57733,1.57733,0,0,0-1.5828-1.5625H13.0795a1.57731,1.57731,0,0,0-1.5827,1.5625v4.6875H6.74838A4.71945,4.71945,0,0,0,2,12.93759v4.6875H46.3182v-4.6875A4.71946,4.71946,0,0,0,41.5698,8.25009Z"/><path class="cls-2" d="M34.3214,6.25009v.5h5.2484a4.21947,4.21947,0,0,1,4.2484,4.1875v4.1875H.5v-4.1875a4.21948,4.21948,0,0,1,4.24838-4.1875H9.99675V1.56259A1.07738,1.07738,0,0,1,11.0795.50009h3.1656a1.07742,1.07742,0,0,1,1.0828,1.0625v5.1875H28.9903V1.56259A1.07742,1.07742,0,0,1,30.0731.50009h3.1655a1.07742,1.07742,0,0,1,1.0828,1.0625Zm-29.573,43.25A4.21947,4.21947,0,0,1,.5,45.31259V19.25009H43.8182v26.0625a4.21947,4.21947,0,0,1-4.2484,4.1875Zm28.09452-25a1.683,1.683,0,0,0-1.6871,1.6719v3.9062a1.683,1.683,0,0,0,1.6871,1.6719h3.957a1.683,1.683,0,0,0,1.6871-1.6719V26.172a1.683,1.683,0,0,0-1.6871-1.6719Zm0,12.5a1.683,1.683,0,0,0-1.6871,1.6719v3.9062a1.683,1.683,0,0,0,1.6871,1.6719h3.957a1.683,1.683,0,0,0,1.6871-1.6719V38.672a1.683,1.683,0,0,0-1.6871-1.6719Zm-12.6623-12.5a1.683,1.683,0,0,0-1.6871,1.6719v3.9062a1.683,1.683,0,0,0,1.6871,1.6719h3.957a1.683,1.683,0,0,0,1.6871-1.6719V26.172a1.683,1.683,0,0,0-1.6871-1.6719Zm0,12.5a1.683,1.683,0,0,0-1.6871,1.6719v3.9062a1.683,1.683,0,0,0,1.6871,1.6719h3.957a1.683,1.683,0,0,0,1.6871-1.6719V38.672a1.683,1.683,0,0,0-1.6871-1.6719Zm-12.66234-12.5A1.683,1.683,0,0,0,5.83117,26.172v3.9062a1.683,1.683,0,0,0,1.68709,1.6719H11.4752a1.683,1.683,0,0,0,1.6871-1.6719V26.172a1.683,1.683,0,0,0-1.6871-1.6719Zm0,12.5A1.683,1.683,0,0,0,5.83117,38.672v3.9062a1.683,1.683,0,0,0,1.68709,1.6719H11.4752a1.683,1.683,0,0,0,1.6871-1.6719V38.672a1.683,1.683,0,0,0-1.6871-1.6719Z"/></svg>

<svg width="47" height="52" viewBox="0 0 47 52" fill="none" xmlns="http://www.w3.org/2000/svg">
<path d="M2 47.3125C2 49.9004 4.12688 52 6.74838 52H41.5698C44.1913 52 46.3182 49.9004 46.3182 47.3125V20.75H2V47.3125ZM33.6558 28.1719C33.6558 27.5273 34.19 27 34.8429 27H38.7999C39.4528 27 39.987 27.5273 39.987 28.1719V32.0781C39.987 32.7227 39.4528 33.25 38.7999 33.25H34.8429C34.19 33.25 33.6558 32.7227 33.6558 32.0781V28.1719ZM33.6558 40.6719C33.6558 40.0273 34.19 39.5 34.8429 39.5H38.7999C39.4528 39.5 39.987 40.0273 39.987 40.6719V44.5781C39.987 45.2227 39.4528 45.75 38.7999 45.75H34.8429C34.19 45.75 33.6558 45.2227 33.6558 44.5781V40.6719ZM20.9935 28.1719C20.9935 27.5273 21.5277 27 22.1806 27H26.1376C26.7905 27 27.3247 27.5273 27.3247 28.1719V32.0781C27.3247 32.7227 26.7905 33.25 26.1376 33.25H22.1806C21.5277 33.25 20.9935 32.7227 20.9935 32.0781V28.1719ZM20.9935 40.6719C20.9935 40.0273 21.5277 39.5 22.1806 39.5H26.1376C26.7905 39.5 27.3247 40.0273 27.3247 40.6719V44.5781C27.3247 45.2227 26.7905 45.75 26.1376 45.75H22.1806C21.5277 45.75 20.9935 45.2227 20.9935 44.5781V40.6719ZM8.33117 28.1719C8.33117 27.5273 8.86536 27 9.51826 27H13.4752C14.1281 27 14.6623 27.5273 14.6623 28.1719V32.0781C14.6623 32.7227 14.1281 33.25 13.4752 33.25H9.51826C8.86536 33.25 8.33117 32.7227 8.33117 32.0781V28.1719ZM8.33117 40.6719C8.33117 40.0273 8.86536 39.5 9.51826 39.5H13.4752C14.1281 39.5 14.6623 40.0273 14.6623 40.6719V44.5781C14.6623 45.2227 14.1281 45.75 13.4752 45.75H9.51826C8.86536 45.75 8.33117 45.2227 8.33117 44.5781V40.6719ZM41.5698 8.25H36.8214V3.5625C36.8214 2.70312 36.1092 2 35.2386 2H32.0731C31.2025 2 30.4903 2.70312 30.4903 3.5625V8.25H17.8279V3.5625C17.8279 2.70312 17.1157 2 16.2451 2H13.0795C12.209 2 11.4968 2.70312 11.4968 3.5625V8.25H6.74838C4.12688 8.25 2 10.3496 2 12.9375V17.625H46.3182V12.9375C46.3182 10.3496 44.1913 8.25 41.5698 8.25Z" fill="#80b690"/>
<path d="M34.3214 6.25V6.75H34.8214H39.5698C41.9213 6.75 43.8182 8.63181 43.8182 10.9375V15.125H0.5V10.9375C0.5 8.63181 2.39692 6.75 4.74838 6.75H9.49675H9.99675V6.25V1.5625C9.99675 0.98533 10.479 0.5 11.0795 0.5H14.2451C14.8456 0.5 15.3279 0.98533 15.3279 1.5625V6.25V6.75H15.8279H28.4903H28.9903V6.25V1.5625C28.9903 0.98533 29.4726 0.5 30.0731 0.5H33.2386C33.8391 0.5 34.3214 0.985329 34.3214 1.5625V6.25ZM4.74838 49.5C2.39692 49.5 0.5 47.6182 0.5 45.3125V19.25H43.8182V45.3125C43.8182 47.6182 41.9213 49.5 39.5698 49.5H4.74838ZM32.8429 24.5C31.92 24.5 31.1558 25.2451 31.1558 26.1719V30.0781C31.1558 31.0049 31.92 31.75 32.8429 31.75H36.7999C37.7229 31.75 38.487 31.0049 38.487 30.0781V26.1719C38.487 25.2451 37.7229 24.5 36.7999 24.5H32.8429ZM32.8429 37C31.92 37 31.1558 37.7451 31.1558 38.6719V42.5781C31.1558 43.5049 31.92 44.25 32.8429 44.25H36.7999C37.7229 44.25 38.487 43.5049 38.487 42.5781V38.6719C38.487 37.7451 37.7229 37 36.7999 37H32.8429ZM20.1806 24.5C19.2577 24.5 18.4935 25.2451 18.4935 26.1719V30.0781C18.4935 31.0049 19.2577 31.75 20.1806 31.75H24.1376C25.0605 31.75 25.8247 31.0049 25.8247 30.0781V26.1719C25.8247 25.2451 25.0605 24.5 24.1376 24.5H20.1806ZM20.1806 37C19.2577 37 18.4935 37.7451 18.4935 38.6719V42.5781C18.4935 43.5049 19.2577 44.25 20.1806 44.25H24.1376C25.0605 44.25 25.8247 43.5049 25.8247 42.5781V38.6719C25.8247 37.7451 25.0605 37 24.1376 37H20.1806ZM7.51826 24.5C6.59532 24.5 5.83117 25.2451 5.83117 26.1719V30.0781C5.83117 31.0049 6.59532 31.75 7.51826 31.75H11.4752C12.3982 31.75 13.1623 31.0049 13.1623 30.0781V26.1719C13.1623 25.2451 12.3982 24.5 11.4752 24.5H7.51826ZM7.51826 37C6.59532 37 5.83117 37.7451 5.83117 38.6719V42.5781C5.83117 43.5049 6.59532 44.25 7.51826 44.25H11.4752C12.3982 44.25 13.1623 43.5049 13.1623 42.5781V38.6719C13.1623 37.7451 12.3982 37 11.4752 37H7.51826Z" stroke="#1c1d20"/>
</svg>
